frontend/src/assets/camera.svg

<?xml version="1.0" encoding="UTF-8" standalone="no"?>
<!-- Created with Inkscape (http://www.inkscape.org/) -->

<svg
   width="100mm"
   height="100mm"
   viewBox="0 0 100 100"
   version="1.1"
   id="svg1"
   xml:space="preserve"
   inkscape:version="1.4.2 (f4327f4, 2025-05-13)"
   sodipodi:docname="camera.svg"
   xmlns:inkscape="http://www.inkscape.org/namespaces/inkscape"
   xmlns:sodipodi="http://sodipodi.sourceforge.net/DTD/sodipodi-0.dtd"
   xmlns="http://www.w3.org/2000/svg"
   xmlns:svg="http://www.w3.org/2000/svg"><sodipodi:namedview
     id="namedview1"
     pagecolor="#505050"
     bordercolor="#eeeeee"
     borderopacity="1"
     inkscape:showpageshadow="0"
     inkscape:pageopacity="0"
     inkscape:pagecheckerboard="0"
     inkscape:deskcolor="#505050"
     inkscape:document-units="mm"
     inkscape:zoom="1.9477379"
     inkscape:cx="181.49259"
     inkscape:cy="211.78414"
     inkscape:window-width="1920"
     inkscape:window-height="991"
     inkscape:window-x="-9"
     inkscape:window-y="-9"
     inkscape:window-maximized="1"
     inkscape:current-layer="layer3" /><defs
     id="defs1" /><g
     inkscape:groupmode="layer"
     id="layer3"
     inkscape:label="Шар 2"
     style="stroke-width:2;stroke-dasharray:none"><path
       style="opacity:1;fill:none;stroke:#000000;stroke-width:2;stroke-linecap:round;stroke-linejoin:round;stroke-dasharray:none"
       d="m 38.035575,22.889265 -4.754448,11.886118 -0.06792,4.279003"
       id="path8"
       sodipodi:nodetypes="ccc" /><path
       style="opacity:1;fill:none;stroke:#000000;stroke-width:2;stroke-linecap:round;stroke-linejoin:round;stroke-dasharray:none"
       d="M 76.07115,74.03353 62.554937,75.05234 54.268615,72.946799"
       id="path9" /><path
       style="opacity:1;fill:none;stroke:#000000;stroke-width:2;stroke-linecap:round;stroke-linejoin:round;stroke-dasharray:none"
       d="m 37.967655,22.685504 2.988508,4.95821 21.055409,4.754446 13.380371,-0.815049"
       id="path10"
       sodipodi:nodetypes="cccc" /><path
       style="opacity:1;fill:none;stroke:#000000;stroke-width:2;stroke-linecap:round;stroke-linejoin:round;stroke-dasharray:none"
       d="m 80.282231,29.47757 -4.686524,2.173462"
       id="path11" /><path
       style="opacity:1;fill:none;stroke:#000000;stroke-width:2;stroke-linecap:round;stroke-linejoin:round;stroke-dasharray:none"
       d="M 75.93531,73.626005 70.026212,69.143241 69.95829,43.061704 75.391943,31.51519"
       id="path12" /><path
       style="opacity:1;fill:none;stroke:#000000;stroke-width:2;stroke-linecap:round;stroke-linejoin:round;stroke-dasharray:none"
       d="m 33.213209,34.707462 7.742954,-6.792066"
       id="path13" /><ellipse
       style="opacity:1;fill:none;stroke:#000000;stroke-width:2;stroke-linecap:round;stroke-linejoin:round;stroke-dasharray:none"
       id="path20"
       cx="10.695436"
       cy="67.648323"
       rx="8.0692692"
       ry="10.512392"
       transform="rotate(-21.497094)" /><path
       style="display:inline;opacity:1;fill:none;stroke:#000000;stroke-width:2;stroke-linecap:round;stroke-linejoin:round;stroke-dasharray:none"
       d="m 37.152605,50.465058 c -12.305689,-0.03044 -7.540909,20.157357 5.297813,14.33126"
       id="path21"
       sodipodi:nodetypes="cc" /><path
       style="opacity:1;fill:none;stroke:#000000;stroke-width:2;stroke-linecap:round;stroke-linejoin:round;stroke-dasharray:none"
       d="m 61.943651,32.534 8.082561,10.731468"
       id="path14" /><path
       style="opacity:1;fill:none;stroke:#000000;stroke-width:2;stroke-linecap:round;stroke-linejoin:round;stroke-dasharray:none"
       d="m 62.351176,74.848579 7.675036,-5.841177 -6.452464,-12.497404 6.11286,-13.787896"
       id="path15" /><ellipse
       style="opacity:1;fill:none;stroke:#000000;stroke-width:2;stroke-linecap:round;stroke-linejoin:round;stroke-dasharray:none"
       id="path16"
       cx="80.466316"
       cy="46.033043"
       rx="1.5237614"
       ry="2.8565874"
       transform="rotate(6.3356117)" /><path
       style="opacity:1;fill:none;stroke:#000000;stroke-width:2;stroke-linecap:round;stroke-linejoin:round;stroke-dasharray:none"
       d="M 64.117113,73.01472 57.257124,70.026212"
       id="path18" /><ellipse
       style="opacity:1;fill:none;stroke:#000000;stroke-width:2;stroke-linecap:round;stroke-linejoin:round;stroke-dasharray:none"
       id="path19"
       transform="rotate(-18.372618)"
       ry="19.40778"
       rx="14.201037"
       cy="67.136658"
       cx="14.345447" /><path
       style="opacity:1;fill:none;stroke:#000000;stroke-width:2;stroke-linecap:round;stroke-linejoin:round;stroke-dasharray:none"
       d="m 30.36054,40.209036 6.792067,-2.03762 c 23.376209,5.726412 17.41777,35.818923 11.071068,37.152606 l -6.452463,2.173462"
       id="path22"
       sodipodi:nodetypes="cccc" /><path
       style="opacity:1;fill:none;stroke:#000000;stroke-width:2;stroke-linecap:round;stroke-linejoin:round;stroke-dasharray:none"
       d="M 52.095154,73.218482 C 72.790825,66.044471 60.789033,27.115566 38.307258,38.307257"
       id="path23"
       sodipodi:nodetypes="cc" /><ellipse
       style="opacity:1;fill:none;stroke:#000000;stroke-width:2;stroke-linecap:round;stroke-linejoin:round;stroke-dasharray:none"
       id="path36"
       cx="25.154963"
       cy="64.291901"
       rx="1.6300961"
       ry="2.5470252"
       transform="rotate(-11.52421)" /><path
       style="opacity:1;fill:none;stroke:#000000;stroke-width:2;stroke-linecap:round;stroke-linejoin:round;stroke-dasharray:none"
       d="m 37.749353,22.380659 3.842173,-2.209249 39.190167,8.64489 0.09605,42.936286 -4.322445,2.113195"
       id="path37" /><path
       style="opacity:1;fill:none;stroke:#000000;stroke-width:2;stroke-linecap:round;stroke-linejoin:round;stroke-dasharray:none"
       d="M 41.024085,28.730442 48.495359,36.201717 61.196523,32.534"
       id="path38" /></g></svg>

<svg width="100mm" height="100mm" viewBox="0 0 100 100" xml:space="preserve" xmlns="http://www.w3.org/2000/svg"><g style="stroke-width:2;stroke-dasharray:none"><path style="opacity:1;fill:none;stroke:#000;stroke-width:2;stroke-linecap:round;stroke-linejoin:round;stroke-dasharray:none" d="M38.036 22.89 33.28 34.774l-.068 4.28M76.071 74.034l-13.516 1.018-8.286-2.105M37.968 22.686l2.988 4.958 21.056 4.754 13.38-.815M80.282 29.478l-4.686 2.173"/><path style="opacity:1;fill:none;stroke:#000;stroke-width:2;stroke-linecap:round;stroke-linejoin:round;stroke-dasharray:none" d="m75.935 73.626-5.909-4.483-.068-26.081 5.434-11.547M33.213 34.707l7.743-6.792"/><ellipse style="opacity:1;fill:none;stroke:#000;stroke-width:2;stroke-linecap:round;stroke-linejoin:round;stroke-dasharray:none" cx="10.695" cy="67.648" rx="8.069" ry="10.512" transform="rotate(-21.497)"/><path style="display:inline;opacity:1;fill:none;stroke:#000;stroke-width:2;stroke-linecap:round;stroke-linejoin:round;stroke-dasharray:none" d="M37.153 50.465c-12.306-.03-7.541 20.157 5.297 14.331"/><path style="opacity:1;fill:none;stroke:#000;stroke-width:2;stroke-linecap:round;stroke-linejoin:round;stroke-dasharray:none" d="m61.944 32.534 8.082 10.731M62.351 74.849l7.675-5.842-6.452-12.497 6.113-13.788"/><ellipse style="opacity:1;fill:none;stroke:#000;stroke-width:2;stroke-linecap:round;stroke-linejoin:round;stroke-dasharray:none" cx="80.466" cy="46.033" rx="1.524" ry="2.857" transform="rotate(6.336)"/><path style="opacity:1;fill:none;stroke:#000;stroke-width:2;stroke-linecap:round;stroke-linejoin:round;stroke-dasharray:none" d="m64.117 73.015-6.86-2.989"/><ellipse style="opacity:1;fill:none;stroke:#000;stroke-width:2;stroke-linecap:round;stroke-linejoin:round;stroke-dasharray:none" transform="rotate(-18.373)" ry="19.408" rx="14.201" cy="67.137" cx="14.345"/><path style="opacity:1;fill:none;stroke:#000;stroke-width:2;stroke-linecap:round;stroke-linejoin:round;stroke-dasharray:none" d="m30.36 40.209 6.793-2.038c23.376 5.727 17.417 35.82 11.07 37.153l-6.452 2.173"/><path style="opacity:1;fill:none;stroke:#000;stroke-width:2;stroke-linecap:round;stroke-linejoin:round;stroke-dasharray:none" d="M52.095 73.218c20.696-7.174 8.694-46.102-13.788-34.91"/><ellipse style="opacity:1;fill:none;stroke:#000;stroke-width:2;stroke-linecap:round;stroke-linejoin:round;stroke-dasharray:none" cx="25.155" cy="64.292" rx="1.63" ry="2.547" transform="rotate(-11.524)"/><path style="opacity:1;fill:none;stroke:#000;stroke-width:2;stroke-linecap:round;stroke-linejoin:round;stroke-dasharray:none" d="m37.75 22.38 3.842-2.209 39.19 8.645.096 42.937-4.323 2.113"/><path style="opacity:1;fill:none;stroke:#000;stroke-width:2;stroke-linecap:round;stroke-linejoin:round;stroke-dasharray:none" d="m41.024 28.73 7.471 7.472 12.702-3.668"/></g></svg>
